packages/astro-components-stencil/src/icons/notifications-paused.svg

<svg width="24" height="24" viewBox="0 0 24 24" fill="none" xmlns="http://www.w3.org/2000/svg">
<path fill-rule="evenodd" clip-rule="evenodd" d="M19.2901 17.29L18.0001 16V11C18.0001 7.93 16.3601 5.36 13.5001 4.68V4C13.5001 3.17 12.8301 2.5 12.0001 2.5C11.1701 2.5 10.5001 3.17 10.5001 4V4.68C7.63005 5.36 6.00005 7.92 6.00005 11V16L4.71005 17.29C4.08005 17.92 4.52005 19 5.41005 19H18.5801C19.4801 19 19.9201 17.92 19.2901 17.29ZM12.0001 22C13.1001 22 14.0001 21.1 14.0001 20H10.0001C10.0001 21.1 10.8901 22 12.0001 22ZM14.2001 10.17C14.3901 9.93 14.5001 9.64 14.5001 9.33C14.5001 8.59 13.9101 8 13.1801 8H10.4001C9.90005 8 9.50005 8.4 9.50005 8.9C9.50005 9.4 9.90005 9.8 10.4001 9.8H12.3001L9.80005 12.83C9.61005 13.07 9.50005 13.36 9.50005 13.67V13.68C9.50005 14.41 10.0901 15 10.8201 15H13.6001C14.1001 15 14.5001 14.6 14.5001 14.1C14.5001 13.6 14.1001 13.2 13.6001 13.2H11.7001L14.2001 10.17Z" fill="black"/>
</svg>

<svg xmlns="http://www.w3.org/2000/svg" viewBox="0 0 24 24"><g xmlns="http://www.w3.org/2000/svg" id="notifications-paused" fill-rule="nonzero">
            <path d="M12 22c1.1 0 2-.9 2-2h-4a2 2 0 002 2zm7.29-4.71L18 16v-5c0-3.07-1.64-5.64-4.5-6.32V4c0-.83-.67-1.5-1.5-1.5s-1.5.67-1.5 1.5v.68C7.63 5.36 6 7.92 6 11v5l-1.29 1.29c-.63.63-.19 1.71.7 1.71h13.17c.9 0 1.34-1.08.71-1.71zM14.5 9.33c0 .31-.11.6-.3.84l-2.5 3.03h1.9c.5 0 .9.4.9.9s-.4.9-.9.9h-2.78c-.73 0-1.32-.59-1.32-1.32v-.01c0-.31.11-.6.3-.84l2.5-3.03h-1.9c-.5 0-.9-.4-.9-.9s.4-.9.9-.9h2.78c.73 0 1.32.59 1.32 1.33z"/>
        </g></svg>
